src/assets/svg/icons/fa/nuevos/classic/thin/indent classic thin.svg

<svg xmlns="http://www.w3.org/2000/svg" viewBox="0 0 448 512"><path d="M-.0006 64C-.0006 59.58 3.581 56 7.999 56H440C444.4 56 448 59.58 448 64C448 68.42 444.4 72 440 72H7.999C3.581 72-.0006 68.42-.0006 64V64zM191.1 192C191.1 187.6 195.6 184 199.1 184H440C444.4 184 448 187.6 448 192C448 196.4 444.4 200 440 200H199.1C195.6 200 191.1 196.4 191.1 192zM440 312C444.4 312 448 315.6 448 320C448 324.4 444.4 328 440 328H199.1C195.6 328 191.1 324.4 191.1 320C191.1 315.6 195.6 312 199.1 312H440zM-.0006 448C-.0006 443.6 3.581 440 7.999 440H440C444.4 440 448 443.6 448 448C448 452.4 444.4 456 440 456H7.999C3.581 456-.0006 452.4-.0006 448V448zM121 243.6C128.8 250 128.8 261.1 121 268.4L26.17 346.4C15.73 355-.001 347.6-.001 334.1V177.9C-.001 164.4 15.73 156.1 26.17 165.6L121 243.6zM15.1 177.9V334.1L110.8 256L15.1 177.9z"/></svg>

<svg xmlns="http://www.w3.org/2000/svg" viewBox="0 0 448 512"><!--! Font Awesome Pro 6.4.0 by @fontawesome - https://fontawesome.com License - https://fontawesome.com/license (Commercial License) Copyright 2023 Fonticons, Inc. --><path d="M0 64c0-4.4 3.6-8 8-8H440c4.4 0 8 3.6 8 8s-3.6 8-8 8H8c-4.4 0-8-3.6-8-8zM192 192c0-4.4 3.6-8 8-8H440c4.4 0 8 3.6 8 8s-3.6 8-8 8H200c-4.4 0-8-3.6-8-8zm8 120H440c4.4 0 8 3.6 8 8s-3.6 8-8 8H200c-4.4 0-8-3.6-8-8s3.6-8 8-8zM0 448c0-4.4 3.6-8 8-8H440c4.4 0 8 3.6 8 8s-3.6 8-8 8H8c-4.4 0-8-3.6-8-8zM110.8 256L16 177.9l0 156.2L110.8 256zM121 243.6c7.8 6.4 7.8 18.3 0 24.7L26.2 346.4C15.7 355 0 347.6 0 334.1V177.9c0-13.5 15.7-20.9 26.2-12.4L121 243.6z"/></svg>
